fs/keyboard_dock_24_filled.svg

<svg viewBox="0 0 24 24" fill="none" xmlns="http://www.w3.org/2000/svg" height="1em" width="1em">
  <path d="M21.9954 4.75C21.9954 3.50736 20.988 2.5 19.7454 2.5H4.25C3.00736 2.5 2 3.50736 2 4.75V14.2546C2 15.4972 3.00736 16.5046 4.25 16.5046H11.25V19.4393L10.4092 18.5986C10.1163 18.3057 9.64147 18.3057 9.34858 18.5986C9.05568 18.8915 9.05568 19.3663 9.34858 19.6592L11.4697 21.7803C11.7626 22.0732 12.2374 22.0732 12.5303 21.7803L14.6514 19.6592C14.9443 19.3663 14.9443 18.8915 14.6514 18.5986C14.3585 18.3057 13.8837 18.3057 13.5908 18.5986L12.75 19.4393V16.5046H19.7454C20.988 16.5046 21.9954 15.4972 21.9954 14.2546V4.75ZM6.75 12H17.25L17.3518 12.0068C17.7178 12.0565 18 12.3703 18 12.75C18 13.1297 17.7178 13.4435 17.3518 13.4932L17.25 13.5H6.75L6.64823 13.4932C6.28215 13.4435 6 13.1297 6 12.75C6 12.3703 6.28215 12.0565 6.64823 12.0068L6.75 12ZM15.5 9.5C15.5 8.94772 15.9477 8.5 16.5 8.5C17.0523 8.5 17.5 8.94772 17.5 9.5C17.5 10.0523 17.0523 10.5 16.5 10.5C15.9477 10.5 15.5 10.0523 15.5 9.5ZM12.5049 9.5C12.5049 8.94772 12.9526 8.5 13.5049 8.5C14.0572 8.5 14.5049 8.94772 14.5049 9.5C14.5049 10.0523 14.0572 10.5 13.5049 10.5C12.9526 10.5 12.5049 10.0523 12.5049 9.5ZM9.50488 9.5C9.50488 8.94772 9.95259 8.5 10.5049 8.5C11.0572 8.5 11.5049 8.94772 11.5049 9.5C11.5049 10.0523 11.0572 10.5 10.5049 10.5C9.95259 10.5 9.50488 10.0523 9.50488 9.5ZM6.50488 9.5C6.50488 8.94772 6.95259 8.5 7.50488 8.5C8.05716 8.5 8.50488 8.94772 8.50488 9.5C8.50488 10.0523 8.05716 10.5 7.50488 10.5C6.95259 10.5 6.50488 10.0523 6.50488 9.5ZM5 6.5C5 5.94772 5.44772 5.5 6 5.5C6.55228 5.5 7 5.94772 7 6.5C7 7.05228 6.55228 7.5 6 7.5C5.44772 7.5 5 7.05228 5 6.5ZM7.99512 6.5C7.99512 5.94772 8.44284 5.5 8.99512 5.5C9.54741 5.5 9.99512 5.94772 9.99512 6.5C9.99512 7.05228 9.54741 7.5 8.99512 7.5C8.44284 7.5 7.99512 7.05228 7.99512 6.5ZM10.9951 6.5C10.9951 5.94772 11.4428 5.5 11.9951 5.5C12.5474 5.5 12.9951 5.94772 12.9951 6.5C12.9951 7.05228 12.5474 7.5 11.9951 7.5C11.4428 7.5 10.9951 7.05228 10.9951 6.5ZM13.9951 6.5C13.9951 5.94772 14.4428 5.5 14.9951 5.5C15.5474 5.5 15.9951 5.94772 15.9951 6.5C15.9951 7.05228 15.5474 7.5 14.9951 7.5C14.4428 7.5 13.9951 7.05228 13.9951 6.5ZM16.9951 6.5C16.9951 5.94772 17.4428 5.5 17.9951 5.5C18.5474 5.5 18.9951 5.94772 18.9951 6.5C18.9951 7.05228 18.5474 7.5 17.9951 7.5C17.4428 7.5 16.9951 7.05228 16.9951 6.5Z" fill="#212121"/>
</svg>

<svg viewBox="0 0 24 24" fill="none" xmlns="http://www.w3.org/2000/svg" height="1em" width="1em">
  <path d="M21.995 4.75a2.25 2.25 0 0 0-2.25-2.25H4.25A2.25 2.25 0 0 0 2 4.75v9.505a2.25 2.25 0 0 0 2.25 2.25h7v2.934l-.84-.84a.75.75 0 1 0-1.061 1.06l2.12 2.121a.75.75 0 0 0 1.061 0l2.121-2.12a.75.75 0 1 0-1.06-1.061l-.841.84v-2.934h6.995a2.25 2.25 0 0 0 2.25-2.25V4.75ZM6.75 12h10.5l.102.007a.75.75 0 0 1 0 1.486l-.102.007H6.75l-.102-.007a.75.75 0 0 1 0-1.486L6.75 12Zm8.75-2.5a1 1 0 1 1 2 0 1 1 0 0 1-2 0Zm-2.995 0a1 1 0 1 1 2 0 1 1 0 0 1-2 0Zm-3 0a1 1 0 1 1 2 0 1 1 0 0 1-2 0Zm-3 0a1 1 0 1 1 2 0 1 1 0 0 1-2 0ZM5 6.5a1 1 0 1 1 2 0 1 1 0 0 1-2 0Zm2.995 0a1 1 0 1 1 2 0 1 1 0 0 1-2 0Zm3 0a1 1 0 1 1 2 0 1 1 0 0 1-2 0Zm3 0a1 1 0 1 1 2 0 1 1 0 0 1-2 0Zm3 0a1 1 0 1 1 2 0 1 1 0 0 1-2 0Z" fill="#212121"/>
</svg>
